X: 35973
T: Sarah's Valentine
R: jig
M: 6/8
K: Gmajor
|:g3 agf|gdB c2d|BDD cAG|FDF ABd|
g3 agf|gdB cdc|BF/G/B AF/G/A|G3 G3:|
|:D3 DEF|GDB c2A|BDD cAG|FDF AFd|
D3 DEF|GDB cdc|BF/G/B AF/G/A|G3 G3:|

